Numix/48x48/devices/battery-full-charging.svg

<?xml version="1.0" encoding="UTF-8" standalone="no"?>
<svg
   xmlns:dc="http://purl.org/dc/elements/1.1/"
   xmlns:cc="http://creativecommons.org/ns#"
   xmlns:rdf="http://www.w3.org/1999/02/22-rdf-syntax-ns#"
   xmlns:svg="http://www.w3.org/2000/svg"
   xmlns="http://www.w3.org/2000/svg"
   xmlns:xlink="http://www.w3.org/1999/xlink"
   xmlns:sodipodi="http://sodipodi.sourceforge.net/DTD/sodipodi-0.dtd"
   xmlns:inkscape="http://www.inkscape.org/namespaces/inkscape"
   width="48"
   height="48"
   viewBox="0 0 48 48"
   id="svg2"
   version="1.1"
   inkscape:version="0.91 r"
   sodipodi:docname="battery-full-charging.svg">
  <metadata
     id="metadata10">
    <rdf:RDF>
      <cc:Work
         rdf:about="">
        <dc:format>image/svg+xml</dc:format>
        <dc:type
           rdf:resource="http://purl.org/dc/dcmitype/StillImage" />
        <dc:title></dc:title>
      </cc:Work>
    </rdf:RDF>
  </metadata>
  <defs
     id="defs8">
    <linearGradient
       inkscape:collect="always"
       xlink:href="#linearGradient3784"
       id="linearGradient3790"
       x1="22.454058"
       y1="-7"
       x2="22.454058"
       y2="23"
       gradientUnits="userSpaceOnUse" />
    <linearGradient
       id="linearGradient3784">
      <stop
         style="stop-color:#839496;stop-opacity:1;"
         offset="0"
         id="stop3786" />
      <stop
         style="stop-color:#667678;stop-opacity:1;"
         offset="1"
         id="stop3788" />
    </linearGradient>
    <linearGradient
       gradientTransform="matrix(0.75,0,0,0.75,-1.9999989,-2.0000001)"
       y2="23"
       x2="22.454058"
       y1="-7"
       x1="22.454058"
       gradientUnits="userSpaceOnUse"
       id="linearGradient3011"
       xlink:href="#linearGradient3784"
       inkscape:collect="always" />
  </defs>
  <sodipodi:namedview
     pagecolor="#ffffff"
     bordercolor="#666666"
     borderopacity="1"
     objecttolerance="10"
     gridtolerance="10"
     guidetolerance="10"
     inkscape:pageopacity="0"
     inkscape:pageshadow="2"
     inkscape:window-width="1366"
     inkscape:window-height="747"
     id="namedview6"
     showgrid="true"
     inkscape:zoom="5.2149125"
     inkscape:cx="-29.188434"
     inkscape:cy="8.8076835"
     inkscape:window-x="0"
     inkscape:window-y="21"
     inkscape:window-maximized="1"
     inkscape:current-layer="svg2">
    <inkscape:grid
       type="xygrid"
       id="grid3010" />
  </sodipodi:namedview>
  <path
     inkscape:connector-curvature="0"
     style="fill:url(#linearGradient3011);fill-opacity:1;stroke:none"
     d="m 22,7.9999995 c -1.108,0 -1.999999,0.892 -1.999999,2 l 0,1.0000005 -2,0 c -1.108,0 -2,0.892001 -2,2 l 0,25 c 0,1.108 0.892,2 2,2 L 30,40 c 1.108,0 2,-0.892 2,-2 l 0,-25 c 0,-1.108 -0.892,-2 -2,-2 l -2,0 0,-1.0000005 c 0,-1.108 -0.892,-2 -2,-2 l -4,0 z"
     id="rect2995" />
  <path
     style="fill:#6fa7ce;fill-opacity:1;stroke:none"
     d="m 18,11 12,0 c 1.108,0 2,0.884204 2,1.982521 l 0,25.034956 C 32,39.115796 31.108,40 30,40 l -12,0 c -1.108,0 -2,-0.884204 -2,-1.982523 L 16,12.982521 C 16,11.884204 16.892,11 18,11 Z"
     id="rect3770"
     inkscape:connector-curvature="0"
     sodipodi:nodetypes="sssssssss" />
  <rect
     style="opacity:0.2;fill:#ffffff;fill-opacity:1;stroke:none"
     id="rect3772"
     width="2.6666667"
     height="29"
     x="26.666666"
     y="10.999999"
     ry="0" />
  <rect
     style="opacity:0.2;fill:#ffffff;fill-opacity:1;stroke:none"
     id="rect3774"
     width="2.6666667"
     height="3"
     x="24"
     y="7.9999995" />
  <path
     style="fill:#ffffff;fill-opacity:1;fill-rule:evenodd"
     d="m 28,14.705494 -10.666667,12 6.666667,0 -4,9.333334 10.666667,-13.333334 -5,0 2.333333,-8 z"
     id="path8"
     inkscape:connector-curvature="0" />
</svg>

<?xml version="1.0" encoding="UTF-8" standalone="no"?>
<svg
   xmlns:dc="http://purl.org/dc/elements/1.1/"
   xmlns:cc="http://creativecommons.org/ns#"
   xmlns:rdf="http://www.w3.org/1999/02/22-rdf-syntax-ns#"
   xmlns:svg="http://www.w3.org/2000/svg"
   xmlns="http://www.w3.org/2000/svg"
   xmlns:xlink="http://www.w3.org/1999/xlink"
   xmlns:sodipodi="http://sodipodi.sourceforge.net/DTD/sodipodi-0.dtd"
   xmlns:inkscape="http://www.inkscape.org/namespaces/inkscape"
   viewBox="0 0 48 48"
   id="svg2"
   version="1.1"
   inkscape:version="0.91 r"
   width="100%"
   height="100%"
   sodipodi:docname="battery-full-charging.svg">
  <metadata
     id="metadata14">
    <rdf:RDF>
      <cc:Work
         rdf:about="">
        <dc:format>image/svg+xml</dc:format>
        <dc:type
           rdf:resource="http://purl.org/dc/dcmitype/StillImage" />
        <dc:title></dc:title>
      </cc:Work>
    </rdf:RDF>
  </metadata>
  <defs
     id="defs12">
    <linearGradient
       id="linearGradient3784">
      <stop
         style="stop-color:#839496;stop-opacity:1;"
         offset="0"
         id="stop3786" />
      <stop
         style="stop-color:#667678;stop-opacity:1;"
         offset="1"
         id="stop3788" />
    </linearGradient>
    <linearGradient
       id="linearGradient3776">
      <stop
         style="stop-color:#268bd2;stop-opacity:1;"
         offset="0"
         id="stop3778" />
      <stop
         style="stop-color:#1d699f;stop-opacity:1;"
         offset="1"
         id="stop3780" />
    </linearGradient>
    <linearGradient
       inkscape:collect="always"
       xlink:href="#linearGradient3784"
       id="linearGradient3790"
       x1="22.454058"
       y1="-7"
       x2="22.454058"
       y2="23"
       gradientUnits="userSpaceOnUse" />
    <linearGradient
       gradientUnits="userSpaceOnUse"
       y2="23"
       x2="22.454058"
       y1="-7"
       x1="22.454058"
       id="linearGradient3790-5"
       xlink:href="#linearGradient3784"
       inkscape:collect="always" />
    <linearGradient
       gradientTransform="matrix(0.75,0,0,0.75,-1.9999989,-1.9999999)"
       y2="23"
       x2="22.454058"
       y1="-7"
       x1="22.454058"
       gradientUnits="userSpaceOnUse"
       id="linearGradient4157"
       xlink:href="#linearGradient3784"
       inkscape:collect="always" />
    <linearGradient
       gradientTransform="matrix(0.75,0,0,0.75,-1.9999989,-1.9999999)"
       y2="23"
       x2="22.454058"
       y1="-7"
       x1="22.454058"
       gradientUnits="userSpaceOnUse"
       id="linearGradient4158"
       xlink:href="#linearGradient3784"
       inkscape:collect="always" />
  </defs>
  <sodipodi:namedview
     pagecolor="#ffffff"
     bordercolor="#666666"
     borderopacity="1"
     objecttolerance="10"
     gridtolerance="10"
     guidetolerance="10"
     inkscape:pageopacity="0"
     inkscape:pageshadow="2"
     inkscape:window-width="1920"
     inkscape:window-height="1056"
     id="namedview10"
     showgrid="true"
     inkscape:zoom="22.627417"
     inkscape:cx="14.46182"
     inkscape:cy="22.929124"
     inkscape:window-x="0"
     inkscape:window-y="24"
     inkscape:window-maximized="1"
     inkscape:current-layer="svg2">
    <inkscape:grid
       type="xygrid"
       id="grid2993" />
  </sodipodi:namedview>
  <path
     style="fill:url(#linearGradient3790);fill-opacity:1;stroke:none"
     d="M 22 8 C 20.892 8 20 8.892 20 10 L 20 11 L 18 11 C 16.892 11 16 11.892 16 13 L 16 38 C 16 39.108 16.892 40 18 40 L 30 40 C 31.108 40 32 39.108 32 38 L 32 13 C 32 11.892 31.108 11 30 11 L 28 11 L 28 10 C 28 8.892 27.108 8 26 8 L 22 8 z "
     id="rect2995" />
  <rect
     style="opacity:1;fill:#6fa7ce;fill-opacity:1;fill-rule:nonzero;stroke:none;stroke-width:3;stroke-linecap:butt;stroke-linejoin:miter;stroke-miterlimit:4;stroke-dasharray:none;stroke-dashoffset:0;stroke-opacity:1"
     id="rect4172"
     width="16"
     height="29"
     x="16"
     y="11"
     rx="2"
     ry="2" />
  <rect
     style="fill:#ffffff;fill-opacity:1;stroke:none;opacity:0.2"
     id="rect3774"
     width="2"
     height="3"
     x="24"
     y="8" />
  <rect
     ry="2"
     rx="2"
     y="11"
     x="16"
     height="29"
     width="16"
     id="rect4174"
     style="opacity:0.2;fill:#6fa7ce;fill-opacity:1;fill-rule:nonzero;stroke:none;stroke-width:3;stroke-linecap:butt;stroke-linejoin:miter;stroke-miterlimit:4;stroke-dasharray:none;stroke-dashoffset:0;stroke-opacity:1" />
  <rect
     style="opacity:0.2;fill:#ffffff;fill-opacity:1;stroke:none"
     id="rect3772"
     width="3"
     height="29"
     x="27"
     y="11" />
  <path
     style="fill:#ffffff;fill-opacity:1;fill-rule:evenodd"
     d="m 28,15 -10.5,12 6.5,0 -4,9 10.5,-13 -5,0 z"
     id="path8-9"
     inkscape:connector-curvature="0"
     sodipodi:nodetypes="ccccccc" />
</svg>
